packages/core/src/svgs/tokens/mono/UFT.svg

<svg width="24" height="24" viewBox="0 0 24 24" fill="none" xmlns="http://www.w3.org/2000/svg">
<path fill-rule="evenodd" clip-rule="evenodd" d="M17.1754 8.76479C17.1754 8.76479 18.0967 8.74714 21.2784 8.76479C21.6808 8.78832 22.0002 9.1542 22.0002 9.57368C22.0002 9.77188 21.929 9.95305 21.8113 10.0913L20.5231 12.3836C20.513 12.4029 20.5026 12.4222 20.4919 12.4412L17.3043 18.1272C17.1051 18.4895 16.8144 18.7934 16.4613 19.0085C16.1081 19.2236 15.7047 19.3425 15.2913 19.3532H15.1925L5.76066 19.3037H4.70947V19.2843C5.5083 19.1702 6.18007 18.6483 6.52008 17.929H6.52773L11.1489 9.65246C11.4078 9.12596 11.9384 8.76538 12.5507 8.76538L12.5077 8.76656L12.5095 8.76538L17.1754 8.76479Z" fill="white"/>
<path fill-rule="evenodd" clip-rule="evenodd" d="M9.79235 4.65411H18.1177C18.5202 4.67824 18.8389 5.02236 18.8389 5.44295C18.8389 5.61177 18.7878 5.76824 18.7007 5.89648L14.0654 14.2112H14.086L13.3224 15.5788C12.0724 16.7318 12.4342 18.1989 13.5195 18.8966L13.5872 18.9378C13.859 19.1001 13.5872 19.1001 14.3531 19.3531H4.35296C3.9653 19.346 3.61355 19.2095 3.24942 19.0006C2.07882 18.3301 1.65529 16.8054 2.30412 15.5948L7.48416 5.93824C7.95886 5.05294 8.87593 4.58176 9.79235 4.65411Z" fill="white"/>
<path fill-rule="evenodd" clip-rule="evenodd" d="M12.6142 8.76595H17.0942L13.3883 15.6131C12.0318 18.0919 13.6041 19.3496 15.187 19.3496H11.33L11.3282 19.3531H4.93994C5.64818 19.2755 6.3129 18.8648 6.71348 18.1843L6.75877 18.1048L11.4835 9.39418C11.6155 9.21021 11.7871 9.05817 11.9855 8.94924C12.1842 8.84032 12.4044 8.77727 12.6306 8.76477L12.6142 8.76595Z" fill="white"/>
</svg>

<svg xmlns="http://www.w3.org/2000/svg" width="24" height="24" fill="none" viewBox="0 0 24 24">
    <path fill="#fff" fill-rule="evenodd" d="M17.175 8.765s.922-.018 4.103 0c.403.023.722.39.722.809a.8.8 0 0 1-.189.517l-1.288 2.293-.031.057-3.188 5.686a2.37 2.37 0 0 1-2.013 1.226h-.098l-9.432-.05H4.709v-.019A2.39 2.39 0 0 0 6.52 17.93h.008l4.62-8.277c.26-.526.79-.887 1.403-.887l-.043.002.002-.002z" clip-rule="evenodd"/>
    <path fill="#fff" fill-rule="evenodd" d="M9.792 4.654h8.326a.78.78 0 0 1 .72.789.8.8 0 0 1-.137.453l-4.636 8.315h.021l-.764 1.368c-1.25 1.153-.888 2.62.198 3.318l.067.04c.272.163 0 .163.766.416h-10c-.388-.007-.74-.144-1.104-.352-1.17-.67-1.594-2.196-.945-3.406l5.18-9.657a2.41 2.41 0 0 1 2.308-1.284" clip-rule="evenodd"/>
    <path fill="#fff" fill-rule="evenodd" d="M12.614 8.766h4.48l-3.706 6.847c-1.356 2.479.216 3.737 1.799 3.737H11.33l-.002.003H4.94a2.36 2.36 0 0 0 1.773-1.169l.046-.08 4.724-8.71a1.52 1.52 0 0 1 1.148-.63z" clip-rule="evenodd"/>
</svg>
